X:1
T:St. Ursula, CMD
T:Frederick Westlake, 1863
T:St. Ursula, CMD
T:Public Domain
C:Frederick Westlake, 1863
Z:Public Domain
%%score ( 1 2 ) ( 3 4 )
L:1/8
M:none
K:G
V:1 treble 
V:2 treble 
V:3 bass 
V:4 bass 
V:1
 [GB]2 | G2 z c [GB]2 [EG]2 | [DB]2 [DA]2 [DG]2 [B,D]2 | [CE]2 [B,G]2 D2 z A x | [DF]6 [FA]2 | %5
 [Gd]3 [Fc] [GB]2 (ed) | [Ec]3 [EB] [EA]2 [^DB]2 | [EG]2 [GB]2 F2 z ^c x | [DB]6 [Fd]2 | %9
 [Gd]3 [Gd] [Ge]2 [Gd]2 | [Ad]3 [Ac] [GB]2 [GB]2 | [EG]3 [EG] [Ec]2 [Ee]2 | [DA]6 (EF) | %13
 [Gd]3 [Gd] [Ge]2 [^Gd]2 | [Ac]2 [Ad]2 [GB]2 [FA]2 | G3 [EG] [DG]2 [DF]2 | [DG]6 |] %17
V:2
 x2 | d3 F2 x3 | x8 | x4 G3 E2 | x8 | x6 E2 | x8 | x4 d3 E2 | x8 | x8 | x8 | x8 | x6 A2 | x8 | x8 | %15
 G3 x5 | x6 |] %17
V:3
 [G,D]2 | [G,,B,]2 [A,,C]2 [B,,D]2 [C,C]2 | [D,C]2 (E,F,) [G,B,]2 [G,,G,]2 | %3
 [C,G,]2 [E,G,]2 [B,,G,]2 [C,C]2 x | [D,A,]6 [C,D]2 | [B,,D]3 [A,,D] [G,,D]2 (C,B,,) | %6
 [A,,A,]3 [B,,^G,] [C,A,]2 [B,,F,]2 | [E,G,]2 (G,A,) [F,B,]2 [F,,^A,]2 x | [B,,B,]6 (B,A,) | %9
 [G,B,]3 [G,B,] [G,C]2 [G,B,]2 | [F,A,]3 [F,D] [G,D]2 [G,D]2 | C2 z C [A,C]2 [G,C]2 | %12
 [F,D]2 [E,C]2 [D,B,]2 [C,A,]2 | [B,,G,]3 [B,,G,] [C,C]2 [E,B,]2 | A,2 [F,A,]2 [G,C]2 [D,B,]2 | %15
 [E,B,]3 [C,C] [D,B,]2 [D,A,]2 | [G,,B,]6 |] %17
V:4
 x2 | x8 | x2 C2 x4 | x9 | x8 | x6 G,2 | x8 | x2 E,2 x5 | x6 B,2 | x8 | x8 | C3 B,2 x3 | x8 | x8 | %14
 A,2 x6 | x8 | x6 |] %17

